X: 80
T: Hong toujin
%%abc-version 2.0
%%abcx-abcm2ps-target-version 5.9.1 (29 Sep 2008)
%%abc-creator hum2abc beta
%%abcx-conversion-date 2013/10/02 07:44:27
%%abc-edited-by Helmut Schaffrath
%%humdrum-veritas 692517698
%%humdrum-veritas-data 2241206391
%%continueall 1
%%barnumbers 0
L: 1/4
M: 7/8
K: A
Ee/cA [I:setbarnb 1]| 
AA/GA | 
AF/E2 | 
EA/GA | 
BA/GA | 
AF/E2 | 
Ee/cA | 
AA/GA | 
AF/E2 | 
EA/GA | 
BA/GA | 
AF/E2 |]  



